src/images/logo-tipeee.svg

<svg fill="none" height="1080" viewBox="0 0 1080 1080" width="1080" xmlns="http://www.w3.org/2000/svg"><path d="m0 0h1080v1080h-1080z" fill="#fff"/><g fill="#d84759"><path d="m313.645 584.099h-14.069v-144.379c0-2.457-1.981-4.451-4.438-4.451l-74.66 22.429c-3.421.846-4.438 4.042-4.438 6.499v42.838c0 2.457 1.981 4.452 4.438 4.452l13.342-4.002v76.627h-14.068c-2.444 0-4.439 1.995-4.439 4.452v44.872c0 2.457 1.982 4.452 4.439 4.452h93.893c2.443 0 4.438-1.995 4.438-4.452v-44.872c-.013-2.47-1.995-4.465-4.438-4.465z"/><path d="m792.936 638.35c17.357 1.731 35.956-3.566 52.203-9.101 38.294-13.038 74.607-33.724 106.891-57.95 14.081-10.567 27.845-21.927 39.364-35.309 8.533-9.92 16.866-21.623 17.516-35.15.71-14.979-22.522-14.913-23.236 0 0 .145-.013.238-.013.357-.013.079-.039.158-.053.264-.237 1.149-.607 2.272-.99 3.382-.027.092-.066.198-.119.317-.172.356-.33.713-.502 1.07-.727 1.492-1.572 2.945-2.444 4.372-.806 1.334-1.691 2.615-2.576 3.897-.462.673-.951 1.321-1.44 1.968-.079.092-.171.224-.29.37-2.523 3.157-5.244 6.155-8.032 9.075-13.658 14.305-27.488 24.807-43.208 35.599-17.978 12.351-36.96 23.315-56.615 32.773-16.789 8.071-34.503 15.072-53.855 19.127-1.981.409-3.976.766-5.971 1.083-.198.027-.951.132-1.466.211-.713.08-1.413.159-2.127.238-4.002.41-8.031.515-12.047.278-.251-.014-1.4-.146-1.849-.199-.568-.105-1.149-.224-1.717-.343-1.506-.317-2.972-.766-4.425-1.281 1.453.488-2.299-1.136-3.039-1.572-.303-.172-.594-.37-.885-.568.238.132-1.387-1.07-1.783-1.44-.475-.436-2.193-2.444-2.444-2.642-.502-.726-.977-1.453-1.413-2.219 16.234-11.347 31.28-24.57 44.952-38.77 15.811-16.432 30.447-34.912 40.804-55.308 10.092-19.893 17.7-47.329 1.281-66.073-16.948-19.339-45.005-5.456-60.579 7.635-15.587 13.103-26.735 30.923-35.176 49.245-8.137 17.661-14.399 36.325-17.556 55.545-1.994 12.179-3.17 25.389-1.188 37.872-6.949 4.121-14.108 7.872-21.492 11.148-8.349 3.712-19.22 6.935-29.127 8.494.621-.119-2.312.251-2.312.251-1.189.119-2.391.185-3.593.251-2.272.132-4.544.119-6.816.026-.634-.026-1.281-.079-1.915-.132.647.053-1.374-.198-1.77-.264-1.77-.33-3.487-.832-5.178-1.426 1.083.343-2.47-1.203-3.184-1.625-.33-.198-.66-.41-.977-.621-.304-.225-.885-.647-1.11-.859-.991-.858-1.876-1.823-2.721-2.8-.225-.277-.462-.581-.581-.753-.568-.819-1.07-1.678-1.559-2.536 18.123-12.377 34.847-26.855 49.536-43.155 18.083-20.052 34.37-43.433 44.37-68.623 8.137-20.528 5.839-46.788-17.106-55.691-10.264-3.99-21.888-.727-31.465 3.421-13.025 5.64-23.988 16.472-32.878 27.251-11.559 14.015-19.59 30.474-26.3 47.25-7.213 17.991-12.034 36.973-13.738 56.299-.647 7.423-.674 15.336.409 23.05-8.731 5.178-17.78 9.828-27.092 13.87-.568.225-3.025 1.255-3.765 1.545-1.176.463-2.351.912-3.54 1.335-1.044.383-2.1.753-3.157 1.083-2.206.66-4.438 1.255-6.684 1.783-1.044.238-2.114.449-3.17.647-.212.04-1.414.225-1.889.304-3.54.396-7.107.449-10.647.132-.093-.013-.172-.026-.291-.053-.766-.132-1.519-.317-2.285-.488-1.017-.238-2.008-.568-2.985-.912.317.053-2.312-1.109-2.946-1.492-.581-.344-1.136-.714-1.691-1.097-.119-.105-.238-.211-.409-.356-1.044-.899-1.995-1.916-2.906-2.946-.053-.066-.132-.159-.212-.251-.304-.436-.607-.872-.911-1.321-.793-1.202-1.48-2.47-2.14-3.738-.132-.251-.238-.516-.357-.767-.171-.422-.66-1.571-.805-1.955-.08-.224-.146-.449-.225-.66 29.919-18.823 55.295-44.265 73.88-74.752 12.695-20.805 27.78-49.232 15.218-73.431-11.374-21.888-39.325-16.829-56.325-5.773-31.439 20.448-47.185 57.316-54.939 92.638-3.236 14.715-5.917 32.905-4.24 49.931-5.336 2.854-10.858 5.35-16.406 7.768-5.812 2.536-7.08 10.924-4.161 15.891 3.474 5.931 10.092 6.697 15.891 4.161 3.527-1.533 7.001-3.171 10.422-4.862 2.774 6.183 6.618 11.797 11.796 16.499 15.323 13.91 36.921 13.077 55.599 7.516 13.447-4.174 26.524-10.422 38.915-17.608.502.845 1.03 1.664 1.598 2.483 10.924 15.786 29.061 20.62 47.449 19.062 21.65-1.823 42.217-10.238 60.974-20.951 7.9 12.444 20.356 19.498 35.97 21.056zm-233.794-81.687c.119-.792.238-1.572.356-2.364.304-1.955.661-3.91 1.031-5.852.806-4.24 1.77-8.454 2.84-12.642 2.008-7.886 4.517-15.653 7.424-23.248.568-1.493 1.175-2.959 1.783-4.438.039-.04 1.413-3.184 1.691-3.792 1.545-3.355 3.223-6.657 5.006-9.893 1.493-2.708 3.117-5.337 4.848-7.9.462-.687.951-1.373 1.44-2.047-.106.185 1.849-2.312 1.783-2.233 1.691-2.047 3.487-4.015 5.297-5.957 8.018-8.586 17.463-15.838 27.964-18.018.093-.026.159-.039.251-.053.172 0 .436-.013.832-.039.978-.066 1.969-.027 2.946.026h.027c.145.04.303.08.554.132.502.106.978.251 1.467.41-.714-.225.938.475 1.387.74.079.052.132.079.198.118.053.053.092.08.158.146.212.185.819.858 1.097 1.149.251.383.488.779.713 1.176.066.171.647 1.413.766 1.756.317.965.515 1.969.727 2.959.013.093.039.159.052.238 0 .185.014.489.04.991.079 1.176.053 2.338.027 3.514-.106 4.94-1.757 10.422-3.884 16.115-4.98 13.342-13.302 26.128-21.426 37.726-7.503 10.713-16.313 20.488-25.811 29.484-7.093 6.723-14.768 12.826-22.813 18.414.08-5.099.476-10.198 1.07-15.257 0-.198.093-.859.159-1.361zm5.957 49.668c-.132-.172-.171-.225 0 0zm97.314-37.449c.079-.806.172-1.612.264-2.417-.013.224.383-2.735.436-3.091 1.453-9.313 3.805-18.48 6.631-27.476 5.297-16.869 11.493-31.069 21.836-46.643.99-1.492 2.034-2.958 3.091-4.398.105-.146.185-.264.264-.357 1.017-1.281 2.087-2.536 3.144-3.778 4.663-5.482 9.88-10.713 15.758-14.874 4.465-3.17 8.56-5.27 12.774-6.578 1.083-.33 2.193-.568 3.302-.806.132-.026.238-.053.344-.079.172 0 .409-.013.753-.04.99-.079 1.981-.039 2.972-.013.185 0 .304.013.396 0 .198.066.542.159 1.097.291.277.066 1.03.356 1.453.502.435.237.871.488 1.294.753.093.092.198.185.344.317.211.185.713.792.99 1.109.291.463.568.951.832 1.427.067.106.106.185.159.264.04.119.079.238.132.383.33.938.555 1.902.779 2.867.053.264.08.462.119.62.04.529.093 1.057.119 1.586.568 10.369-4.993 21.478-10.541 31.636-17.212 31.518-41.279 58.188-69.336 79.006.026-1.321.053-2.642.119-3.963.092-2.074.277-4.161.475-6.248zm108.965 5.257c.119-2.113.317-4.214.528-6.314.013-.172.198-1.651.238-2.047.119-.793.238-1.599.357-2.391.753-4.795 1.77-9.551 2.906-14.266 2.245-9.26 5.231-18.335 8.678-27.199.41-1.056.832-2.1 1.255-3.143.119-.291.198-.502.278-.674.079-.172.158-.383.29-.674.872-2.021 1.783-4.029 2.721-6.023 1.929-4.135 4.029-8.203 6.262-12.193 1.889-3.394 3.936-6.71 6.076-9.946.991-1.493 2.034-2.959 3.091-4.399.106-.145.185-.264.264-.357 1.44-1.823 2.959-3.58 4.491-5.323 7.794-8.903 17.899-17.45 28.031-20.118.211-.053 1.743-.317 2.087-.396.674-.04 1.347-.066 2.034-.066.278 0 1.149.092 1.625.132.541.132 1.083.277 1.625.436.052.013.079.026.132.039.079.04.171.093.277.145.264.133 1.004.635 1.334.846.344.33.687.674 1.017 1.017.027.026.04.04.053.066.264.383.515.779.753 1.189.132.224.568 1.176.753 1.545.211.661.41 1.321.595 1.982.251.885.409 1.796.554 2.695-.29-1.586.066 1.677.066 1.875.265 5.812-.7 9.841-2.496 15.852-2.933 9.827-8.203 18.916-13.672 27.515-12.456 19.563-28.48 36.828-46.008 52.534-5.271 4.729-10.74 9.26-16.393 13.553.026-1.969.092-3.937.198-5.892z"/><path d="m266.699 428.796c18.163 0 32.891-14.728 32.891-32.891 0-18.176-14.728-32.905-32.891-32.905s-32.892 14.729-32.892 32.891c-.013 18.177 14.715 32.905 32.892 32.905z"/><path d="m189.185 435.269h-34.344c0-1.149 0-2.285 0-3.461v-44.529s1.109-12.509-12.219-7.873c-13.328 4.637-43.9611 13.553-43.9611 13.553s-7.1199 1.017-7.1199 10.264c0 7.793.1057 12.324.2246 32.033h-16.2608c-2.457.013-4.4384 2.008-4.4384 4.464v44.886c0 2.457 1.9814 4.452 4.4384 4.452h16.4457c.0529 23.869.0793 55.453.0793 97.789 0 0-4.0157 79.257 96.0982 40.236 0 0 5.033-2.734 5.443-7.107v-43.459s.066-6.644-6.156-3.659c0 0-32.574 14.848-32.574-6.433 0-17.079 0-17.912 0-77.367h34.344c2.444 0 4.439-1.995 4.439-4.452v-44.886c-.014-2.456-1.995-4.451-4.439-4.451z"/><path d="m435.805 435.268c-10.726 0-21.003 2.18-30.514 6.182v-1.889c0-2.457-1.981-4.451-4.438-4.451h-75.716c-2.444 0-4.439 1.994-4.439 4.451v44.886c0 2.457 1.982 4.452 4.439 4.452h14.398v174.272h-14.398c-2.444 0-4.439 1.994-4.439 4.451v44.886c0 2.457 1.982 4.452 4.439 4.452h94.223c2.456 0 4.438-1.995 4.438-4.452v-44.886c0-2.457-1.982-4.451-4.438-4.451h-14.069v-31.465c9.511 3.989 19.788 6.182 30.514 6.182 48.902 0 88.53-45.361 88.53-101.303s-39.628-101.317-88.53-101.317zm1.004 150.086c-17.529-.079-31.636-21.981-31.518-48.915.119-26.934 14.425-48.716 31.954-48.637 17.529.08 31.637 21.981 31.518 48.915s-14.425 48.703-31.954 48.637z"/><path d="m790.888 693.104c-7.344 0-11.36 6.34-11.36 11.465 0 5.337 4.729 10.858 11.36 10.858 7.543 0 11.572-4.834 11.572-10.858 0-5.125-4.227-11.465-11.572-11.465z"/><path d="m835.338 701.664c-6.433-.106-10.356-5.337-10.356-11.875 0-6.539 2.919-12.88 8.85-12.88 4.623 0 6.143 5.733 6.341 10.568h14.794v-22.734h-11.875l-1.704 4.822c-1.704-2.008-5.733-5.733-12.575-5.733-12.88 0-24.742 7.952-24.742 25.745 0 17.912 12.879 26.855 27.661 26.855 10.871 0 19.92-5.125 24.649-10.264l-8.851-10.263c-3.328 3.645-6.855 5.851-12.192 5.759z"/><path d="m886.036 663.527c-13.883 0-27.462 9.353-27.555 26.155-.198 17.806 13.685 26.657 28.07 26.657 15.297 0 27.661-9.564 27.463-26.261-.317-16.789-12.087-26.339-27.978-26.551zm.502 39.946c-4.227 0-7.437-5.429-7.437-13.685 0-7.345 3.012-13.183 6.935-13.183 4.729.105 7.344 5.931 7.344 13.473 0 7.556-2.509 13.395-6.842 13.395z"/><path d="m1000.01 687.569c0-12.271-2.513-24.147-18.813-24.147-6.935 0-11.664 3.725-14.782 7.239-1.611-2.417-4.834-7.239-14.992-7.239-6.341 0-10.964 5.429-12.576 7.345l-2.219-5.931h-19.008v13.275h4.227v23.738h-4.227v13.183h29.879v-13.183h-6.036v-17.899c0-4.122 1.307-6.037 4.53-6.037 4.029 0 4.228 3.316 4.228 11.466v25.653h26.049v-13.474h-6.037v-16.3c0-4.32 1.004-7.345 5.336-7.345 4.729 0 3.818 7.648 3.818 12.47v24.649h25.543v-13.58h-4.92z"/></g></svg>

<svg width="1080" height="1080" viewBox="0 0 1080 1080" fill="none" xmlns="http://www.w3.org/2000/svg">
<rect width="1080" height="1080" fill="white"/>
<path d="M313.645 584.099H299.576V439.72C299.576 437.263 297.595 435.269 295.138 435.269L220.478 457.698C217.057 458.544 216.04 461.74 216.04 464.197V507.035C216.04 509.492 218.021 511.487 220.478 511.487L233.82 507.485V584.112H219.752C217.308 584.112 215.313 586.107 215.313 588.564V633.436C215.313 635.893 217.295 637.888 219.752 637.888H313.645C316.088 637.888 318.083 635.893 318.083 633.436V588.564C318.07 586.094 316.088 584.099 313.645 584.099Z" fill="#D84759"/>
<path d="M792.936 638.35C810.293 640.081 828.892 634.784 845.139 629.249C883.433 616.211 919.746 595.525 952.03 571.299C966.111 560.732 979.875 549.372 991.394 535.99C999.927 526.07 1008.26 514.367 1008.91 500.84C1009.62 485.861 986.388 485.927 985.674 500.84C985.674 500.985 985.661 501.078 985.661 501.197C985.648 501.276 985.622 501.355 985.608 501.461C985.371 502.61 985.001 503.733 984.618 504.843C984.591 504.935 984.552 505.041 984.499 505.16C984.327 505.516 984.169 505.873 983.997 506.23C983.27 507.722 982.425 509.175 981.553 510.602C980.747 511.936 979.862 513.217 978.977 514.499C978.515 515.172 978.026 515.82 977.537 516.467C977.458 516.559 977.366 516.691 977.247 516.837C974.724 519.994 972.003 522.992 969.215 525.912C955.557 540.217 941.727 550.719 926.007 561.511C908.029 573.862 889.047 584.826 869.392 594.284C852.603 602.355 834.889 609.356 815.537 613.411C813.556 613.82 811.561 614.177 809.566 614.494C809.368 614.521 808.615 614.626 808.1 614.705C807.387 614.785 806.687 614.864 805.973 614.943C801.971 615.353 797.942 615.458 793.926 615.221C793.675 615.207 792.526 615.075 792.077 615.022C791.509 614.917 790.928 614.798 790.36 614.679C788.854 614.362 787.388 613.913 785.935 613.398C787.388 613.886 783.636 612.262 782.896 611.826C782.593 611.654 782.302 611.456 782.011 611.258C782.249 611.39 780.624 610.188 780.228 609.818C779.753 609.382 778.035 607.374 777.784 607.176C777.282 606.45 776.807 605.723 776.371 604.957C792.605 593.61 807.651 580.387 821.323 566.187C837.134 549.755 851.77 531.275 862.127 510.879C872.219 490.986 879.827 463.55 863.408 444.806C846.46 425.467 818.403 439.35 802.829 452.441C787.242 465.544 776.094 483.364 767.653 501.686C759.516 519.347 753.254 538.011 750.097 557.231C748.103 569.41 746.927 582.62 748.909 595.103C741.96 599.224 734.801 602.975 727.417 606.251C719.068 609.963 708.197 613.186 698.29 614.745C698.911 614.626 695.978 614.996 695.978 614.996C694.789 615.115 693.587 615.181 692.385 615.247C690.113 615.379 687.841 615.366 685.569 615.273C684.935 615.247 684.288 615.194 683.654 615.141C684.301 615.194 682.28 614.943 681.884 614.877C680.114 614.547 678.397 614.045 676.706 613.451C677.789 613.794 674.236 612.248 673.522 611.826C673.192 611.628 672.862 611.416 672.545 611.205C672.241 610.98 671.66 610.558 671.435 610.346C670.444 609.488 669.559 608.523 668.714 607.546C668.489 607.269 668.252 606.965 668.133 606.793C667.565 605.974 667.063 605.115 666.574 604.257C684.697 591.88 701.421 577.402 716.11 561.102C734.193 541.05 750.48 517.669 760.48 492.479C768.617 471.951 766.319 445.691 743.374 436.788C733.11 432.798 721.486 436.061 711.909 440.209C698.884 445.849 687.921 456.681 679.031 467.46C667.472 481.475 659.441 497.934 652.731 514.71C645.518 532.701 640.697 551.683 638.993 571.009C638.346 578.432 638.319 586.345 639.402 594.059C630.671 599.237 621.622 603.887 612.31 607.929C611.742 608.154 609.285 609.184 608.545 609.474C607.369 609.937 606.194 610.386 605.005 610.809C603.961 611.192 602.905 611.562 601.848 611.892C599.642 612.552 597.41 613.147 595.164 613.675C594.12 613.913 593.05 614.124 591.994 614.322C591.782 614.362 590.58 614.547 590.105 614.626C586.565 615.022 582.998 615.075 579.458 614.758C579.365 614.745 579.286 614.732 579.167 614.705C578.401 614.573 577.648 614.388 576.882 614.217C575.865 613.979 574.874 613.649 573.897 613.305C574.214 613.358 571.585 612.196 570.951 611.813C570.37 611.469 569.815 611.099 569.26 610.716C569.141 610.611 569.022 610.505 568.851 610.36C567.807 609.461 566.856 608.444 565.945 607.414C565.892 607.348 565.813 607.255 565.733 607.163C565.429 606.727 565.126 606.291 564.822 605.842C564.029 604.64 563.342 603.372 562.682 602.104C562.55 601.853 562.444 601.588 562.325 601.337C562.154 600.915 561.665 599.766 561.52 599.382C561.44 599.158 561.374 598.933 561.295 598.722C591.214 579.899 616.59 554.457 635.175 523.97C647.87 503.165 662.955 474.738 650.393 450.539C639.019 428.651 611.068 433.71 594.068 444.766C562.629 465.214 546.883 502.082 539.129 537.404C535.893 552.119 533.212 570.309 534.889 587.335C529.553 590.189 524.031 592.685 518.483 595.103C512.671 597.639 511.403 606.027 514.322 610.994C517.796 616.925 524.414 617.691 530.213 615.155C533.74 613.622 537.214 611.984 540.635 610.293C543.409 616.476 547.253 622.09 552.431 626.792C567.754 640.702 589.352 639.869 608.03 634.308C621.477 630.134 634.554 623.886 646.945 616.7C647.447 617.545 647.975 618.364 648.543 619.183C659.467 634.969 677.604 639.803 695.992 638.245C717.642 636.422 738.209 628.007 756.966 617.294C764.866 629.738 777.322 636.792 792.936 638.35ZM559.142 556.663C559.261 555.871 559.38 555.091 559.498 554.299C559.802 552.344 560.159 550.389 560.529 548.447C561.335 544.207 562.299 539.993 563.369 535.805C565.377 527.919 567.886 520.152 570.793 512.557C571.361 511.064 571.968 509.598 572.576 508.119C572.615 508.079 573.989 504.935 574.267 504.327C575.812 500.972 577.49 497.67 579.273 494.434C580.766 491.726 582.39 489.097 584.121 486.534C584.583 485.847 585.072 485.161 585.561 484.487C585.455 484.672 587.41 482.175 587.344 482.254C589.035 480.207 590.831 478.239 592.641 476.297C600.659 467.711 610.104 460.459 620.605 458.279C620.698 458.253 620.764 458.24 620.856 458.226C621.028 458.226 621.292 458.213 621.688 458.187C622.666 458.121 623.657 458.16 624.634 458.213C624.647 458.213 624.647 458.213 624.661 458.213C624.806 458.253 624.964 458.293 625.215 458.345C625.717 458.451 626.193 458.596 626.682 458.755C625.968 458.53 627.62 459.23 628.069 459.495C628.148 459.547 628.201 459.574 628.267 459.613C628.32 459.666 628.359 459.693 628.425 459.759C628.637 459.944 629.244 460.617 629.522 460.908C629.773 461.291 630.01 461.687 630.235 462.084C630.301 462.255 630.882 463.497 631.001 463.84C631.318 464.805 631.516 465.809 631.728 466.799C631.741 466.892 631.767 466.958 631.78 467.037C631.78 467.222 631.794 467.526 631.82 468.028C631.899 469.204 631.873 470.366 631.847 471.542C631.741 476.482 630.09 481.964 627.963 487.657C622.983 500.999 614.661 513.785 606.537 525.383C599.034 536.096 590.224 545.871 580.726 554.867C573.633 561.59 565.958 567.693 557.913 573.281C557.993 568.182 558.389 563.083 558.983 558.024C558.983 557.826 559.076 557.165 559.142 556.663ZM565.099 606.331C564.967 606.159 564.928 606.106 565.099 606.331V606.331ZM662.413 568.882C662.492 568.076 662.585 567.27 662.677 566.465C662.664 566.689 663.06 563.73 663.113 563.374C664.566 554.061 666.918 544.894 669.744 535.898C675.041 519.029 681.237 504.829 691.58 489.255C692.57 487.763 693.614 486.297 694.671 484.857C694.776 484.711 694.856 484.593 694.935 484.5C695.952 483.219 697.022 481.964 698.079 480.722C702.742 475.24 707.959 470.009 713.837 465.848C718.302 462.678 722.397 460.578 726.611 459.27C727.694 458.94 728.804 458.702 729.913 458.464C730.045 458.438 730.151 458.411 730.257 458.385C730.429 458.385 730.666 458.372 731.01 458.345C732 458.266 732.991 458.306 733.982 458.332C734.167 458.332 734.286 458.345 734.378 458.332C734.576 458.398 734.92 458.491 735.475 458.623C735.752 458.689 736.505 458.979 736.928 459.125C737.363 459.362 737.799 459.613 738.222 459.878C738.315 459.97 738.42 460.063 738.566 460.195C738.777 460.38 739.279 460.987 739.556 461.304C739.847 461.767 740.124 462.255 740.388 462.731C740.455 462.837 740.494 462.916 740.547 462.995C740.587 463.114 740.626 463.233 740.679 463.378C741.009 464.316 741.234 465.28 741.458 466.245C741.511 466.509 741.538 466.707 741.577 466.865C741.617 467.394 741.67 467.922 741.696 468.451C742.264 478.82 736.703 489.929 731.155 500.087C713.943 531.605 689.876 558.275 661.819 579.093C661.845 577.772 661.872 576.451 661.938 575.13C662.03 573.056 662.215 570.969 662.413 568.882ZM771.378 574.139C771.497 572.026 771.695 569.925 771.906 567.825C771.919 567.653 772.104 566.174 772.144 565.778C772.263 564.985 772.382 564.179 772.501 563.387C773.254 558.592 774.271 553.836 775.407 549.121C777.652 539.861 780.638 530.786 784.085 521.922C784.495 520.866 784.917 519.822 785.34 518.779C785.459 518.488 785.538 518.277 785.618 518.105C785.697 517.933 785.776 517.722 785.908 517.431C786.78 515.41 787.691 513.402 788.629 511.408C790.558 507.273 792.658 503.205 794.891 499.215C796.78 495.821 798.827 492.505 800.967 489.269C801.958 487.776 803.001 486.31 804.058 484.87C804.164 484.725 804.243 484.606 804.322 484.513C805.762 482.69 807.281 480.933 808.813 479.19C816.607 470.287 826.712 461.74 836.844 459.072C837.055 459.019 838.587 458.755 838.931 458.676C839.605 458.636 840.278 458.61 840.965 458.61C841.243 458.61 842.114 458.702 842.59 458.742C843.131 458.874 843.673 459.019 844.215 459.178C844.267 459.191 844.294 459.204 844.347 459.217C844.426 459.257 844.518 459.31 844.624 459.362C844.888 459.495 845.628 459.997 845.958 460.208C846.302 460.538 846.645 460.882 846.975 461.225C847.002 461.251 847.015 461.265 847.028 461.291C847.292 461.674 847.543 462.07 847.781 462.48C847.913 462.704 848.349 463.656 848.534 464.025C848.745 464.686 848.944 465.346 849.129 466.007C849.38 466.892 849.538 467.803 849.683 468.702C849.393 467.116 849.749 470.379 849.749 470.577C850.014 476.389 849.049 480.418 847.253 486.429C844.32 496.256 839.05 505.345 833.581 513.944C821.125 533.507 805.101 550.772 787.573 566.478C782.302 571.207 776.833 575.738 771.18 580.031C771.206 578.062 771.272 576.094 771.378 574.139Z" fill="#D84759"/>
<path d="M266.699 428.796C284.862 428.796 299.59 414.068 299.59 395.905C299.59 377.729 284.862 363 266.699 363C248.536 363 233.807 377.729 233.807 395.891C233.794 414.068 248.522 428.796 266.699 428.796Z" fill="#D84759"/>
<path d="M189.185 435.269H154.841C154.841 434.12 154.841 432.984 154.841 431.808V387.279C154.841 387.279 155.95 374.77 142.622 379.406C129.294 384.043 98.6609 392.959 98.6609 392.959C98.6609 392.959 91.541 393.976 91.541 403.223C91.541 411.016 91.6467 415.547 91.7656 435.256H75.5048C73.0478 435.269 71.0664 437.264 71.0664 439.72V484.606C71.0664 487.063 73.0478 489.058 75.5048 489.058H91.9505C92.0034 512.927 92.0298 544.511 92.0298 586.847C92.0298 586.847 88.0141 666.104 188.128 627.083C188.128 627.083 193.161 624.349 193.571 619.976V576.517C193.571 576.517 193.637 569.873 187.415 572.858C187.415 572.858 154.841 587.706 154.841 566.425C154.841 549.346 154.841 548.513 154.841 489.058H189.185C191.629 489.058 193.624 487.063 193.624 484.606V439.72C193.61 437.264 191.629 435.269 189.185 435.269Z" fill="#D84759"/>
<path d="M435.805 435.268C425.079 435.268 414.802 437.448 405.291 441.45V439.561C405.291 437.104 403.31 435.11 400.853 435.11H325.137C322.693 435.11 320.698 437.104 320.698 439.561V484.447C320.698 486.904 322.68 488.899 325.137 488.899H339.535V663.171H325.137C322.693 663.171 320.698 665.165 320.698 667.622V712.508C320.698 714.965 322.68 716.96 325.137 716.96H419.36C421.816 716.96 423.798 714.965 423.798 712.508V667.622C423.798 665.165 421.816 663.171 419.36 663.171H405.291V631.706C414.802 635.695 425.079 637.888 435.805 637.888C484.707 637.888 524.335 592.527 524.335 536.585C524.335 480.643 484.707 435.268 435.805 435.268ZM436.809 585.354C419.28 585.275 405.173 563.373 405.291 536.439C405.41 509.505 419.716 487.723 437.245 487.802C454.774 487.882 468.882 509.783 468.763 536.717C468.644 563.651 454.338 585.42 436.809 585.354Z" fill="#D84759"/>
<path d="M790.888 693.104C783.544 693.104 779.528 699.444 779.528 704.569C779.528 709.906 784.257 715.427 790.888 715.427C798.431 715.427 802.46 710.593 802.46 704.569C802.46 699.444 798.233 693.104 790.888 693.104Z" fill="#D84759"/>
<path d="M835.338 701.664C828.905 701.558 824.982 696.327 824.982 689.789C824.982 683.25 827.901 676.909 833.832 676.909C838.455 676.909 839.975 682.642 840.173 687.477H854.967V664.743H843.092L841.388 669.565C839.684 667.557 835.655 663.832 828.813 663.832C815.933 663.832 804.071 671.784 804.071 689.577C804.071 707.489 816.95 716.432 831.732 716.432C842.603 716.432 851.652 711.307 856.381 706.168L847.53 695.905C844.202 699.55 840.675 701.756 835.338 701.664Z" fill="#D84759"/>
<path d="M886.036 663.527C872.153 663.527 858.574 672.88 858.481 689.682C858.283 707.488 872.166 716.339 886.551 716.339C901.848 716.339 914.212 706.775 914.014 690.078C913.697 673.289 901.927 663.739 886.036 663.527ZM886.538 703.473C882.311 703.473 879.101 698.044 879.101 689.788C879.101 682.443 882.113 676.605 886.036 676.605C890.765 676.71 893.38 682.536 893.38 690.078C893.38 697.634 890.871 703.473 886.538 703.473Z" fill="#D84759"/>
<path d="M1000.01 687.569C1000.01 675.298 997.497 663.422 981.197 663.422C974.262 663.422 969.533 667.147 966.415 670.661C964.804 668.244 961.581 663.422 951.423 663.422C945.082 663.422 940.459 668.851 938.847 670.767L936.628 664.836H917.62V678.111H921.847V701.849H917.62V715.032H947.499V701.849H941.463V683.95C941.463 679.828 942.77 677.913 945.993 677.913C950.022 677.913 950.221 681.229 950.221 689.379V715.032H976.27V701.558H970.233V685.258C970.233 680.938 971.237 677.913 975.569 677.913C980.298 677.913 979.387 685.561 979.387 690.383V715.032H1004.93V701.452H1000.01V687.569V687.569Z" fill="#D84759"/>
</svg>
